X:2
T:MacGregor of Roro
M:3/4
L:1/8
Q:1/4=84
S:The Edinburgh Collection of Highland Bagpipe Music
K:AMix
%%MIDI drone 70 45 33 70 70
%%MIDI droneon
{/g}A3/2{/GdG}B1/2 | {/g}e2 {/A}e2 {/g}ed | {/GdG}e2 {/g}A2 {/g}A3/2{/GdG}B1/2 | {/g}e2 {/gf}g2 f1/2a3/2 |
{/GdGc}d2 {/g}G2 {/g}d1/2c3/2 | {/GdGc}d2 {/g}e3/2d1/2 {/Bd}B3/2{/G}A1/2|!
{/g}A{/e}G {/gf}g3/2f1/2 {/g}e3/2d1/2 | {/g}Bd {/g}G2 {/e}A2 | {/GdG}B2 {/G}A2 :: {/g}A3/2{/GdG}B1/2 |
{/g}e2 {/ag}a2 {/f}g3/2f1/2 | {/g}ed {/Bd}B{/G}A {/g}A3/2{/GdG}B1/2 |! {/g}e2 a2 {/f}g3/2e1/2 | 
{/gf}g2 G2 {/g}d1/2c3/2 {/GdGc}d2 {/g}e3/2d1/2 {/Bd}B{/G}A | {/g}A3/2{/e}G1/2 {/gf}g3/2f1/2 {/g}e3/2d1/2 |
{/g}Bd {/g}G2 {/e}A2 | {/GdG}B2 {/G}A2 :|

